X:1
T:Title
%%score { ( 1 4 5 ) | ( 2 3 ) }
L:1/8
M:9/8
K:Eb
V:1 treble nm="Grand Piano"
V:4 treble 
V:5 treble 
V:2 bass 
V:3 bass 
V:1
 z3 z3[Q:1/4=108] E2 F | G3- G2 A GFE | [DF]3 E3 E2 G | [GB]3- [GB]2 [GB] [GB][Ac][GB] | %4
[M:3/4] G6 |[M:3/8] E2 F |[M:9/8] G3- G2 A GFE | [DF]3 E3 EFG | F3- F2 B cdc |[M:3/4] [B,DB]6 | %10
[M:12/8] z3 e6- e2 z | z3 d3- d6 | z3 [FA]6- [FA] z z | z3 [EG]3- [EG]6 | z3 e6- e2 z | %15
 [EG]2 [EGe] [EBd]3 [EAc]6 | %16
 z3 B6- B2 z[Q:1/4=106][Q:1/4=105][Q:1/4=103][Q:1/4=101][Q:1/4=100][Q:1/4=98][Q:1/4=96][Q:1/4=95][Q:1/4=93][Q:1/4=91][Q:1/4=89][Q:1/4=88][Q:1/4=86][Q:1/4=84][Q:1/4=83] | %17
[M:9/8] [B,FA]2 [A,DF] [G,B,E]6- | [G,B,E]3 z3 z3 |] %19
V:2
 z3 z3 [E,G,]2 [E,A,E] | [E,B,E]3- [E,B,E]2 [E,CE] B,G,[E,G,] | %2
 [B,,A,]3 [E,G,B,]3 [E,G,B,]2 [E,B,E] | [E,E]3- [E,E]2 [E,E] [E,E]2 [E,E] |[M:3/4] [E,B,E]6 | %5
[M:3/8] [E,G,]2 [E,A,E] |[M:9/8] [E,B,E]3- [E,B,E]2 [E,CE] B,A,[E,G,] | %7
 [B,,A,]3 [E,G,B,]3 [E,B,]-[E,A,B,][E,B,E] | [F,B,D]3- [F,B,D]2 [F,B,D] EF[F,=A,E] |[M:3/4] B,,6 | %10
[M:12/8][K:treble] A2 A[K:bass] [E,B,]2 [E,B,] [E,B,]2 [E,B,] .[E,E]3 | %11
 z3[K:treble] [B,FA]2 [B,F] [B,F]2 [B,F] [B,F]3 | D2 E[K:bass] B,,2 B,, B,,2 B,, z[K:treble] =EF | %13
 B,,2 B,, E,2 E, E,2 E, E,3 | z3[K:bass] G6- G2 z | z[K:treble] BE, A,3 A,6 | z3 G6- G2[K:bass] z | %17
[M:9/8] B,,2 B,, E,6- | E,3 z3 z3 |] %19
V:3
 x9 | z3 z3 .[E,E]3 | x9 | x9 |[M:3/4] x6 |[M:3/8] x3 |[M:9/8] z3 z3 .[E,E]3 | z3 z3 .G,3 | %8
 z3 z3 .[F,=A,]3 |[M:3/4] x6 |[M:12/8][K:treble] x3[K:bass] x9 | x3[K:treble] x9 | %12
 z6[K:bass] z3 B,,3[K:treble] | x12 | A2 A[K:bass] z3 E,2 E, E,2 E, | .E,3[K:treble] z3 z6 | %16
 B2 A z3 E,2 G, B,2[K:bass] B, |[M:9/8] x9 | x9 |] %19
V:4
 x9 | x9 | x9 | x9 |[M:3/4] x6 |[M:3/8] x3 |[M:9/8] x9 | x9 | x9 |[M:3/4] x6 | %10
[M:12/8] Bcd G2 G G2 G G2 B | GBe z2 A A2 A A3 | F2 G D2 D D2 D z GA | %13
 [DAc]2 [B,DB] B,2 B, B,2 B, B,3 | Bcd z3 B,2 B, B,2 [EGB] | x12 | d2 c z3 E2 E E2 [C_G=A] | %17
[M:9/8] x9 | x9 |] %19
V:5
 x9 | x9 | x9 | x9 |[M:3/4] x6 |[M:3/8] x3 |[M:9/8] x9 | x9 | x9 |[M:3/4] x6 |[M:12/8] x12 | x12 | %12
 z6 z3 D3 | x12 | x12 | x12 | x12 |[M:9/8] x9 | x9 |] %19

